static/assets/items/tungsten.svg

<?xml version="1.0" encoding="UTF-8" standalone="no"?>
<!-- Created with Inkscape (http://www.inkscape.org/) -->

<svg
   version="1.1"
   id="svg12785"
   width="32"
   height="32"
   viewBox="0 0 32 32"
   sodipodi:docname="tungsten.svg"
   inkscape:version="1.2 (dc2aedaf03, 2022-05-15)"
   xmlns:inkscape="http://www.inkscape.org/namespaces/inkscape"
   xmlns:sodipodi="http://sodipodi.sourceforge.net/DTD/sodipodi-0.dtd"
   xmlns="http://www.w3.org/2000/svg"
   xmlns:svg="http://www.w3.org/2000/svg">
  <defs
     id="defs12789" />
  <sodipodi:namedview
     id="namedview12787"
     pagecolor="#505050"
     bordercolor="#eeeeee"
     borderopacity="1"
     inkscape:showpageshadow="0"
     inkscape:pageopacity="0"
     inkscape:pagecheckerboard="0"
     inkscape:deskcolor="#505050"
     showgrid="false"
     inkscape:zoom="12.71875"
     inkscape:cx="-13.090909"
     inkscape:cy="12.068796"
     inkscape:window-width="1920"
     inkscape:window-height="1001"
     inkscape:window-x="-9"
     inkscape:window-y="-9"
     inkscape:window-maximized="1"
     inkscape:current-layer="g12791" />
  <g
     inkscape:groupmode="layer"
     inkscape:label="Image"
     id="g12791">
    <g
       id="g15013">
      <path
         style="fill:#4c5878;fill-opacity:1"
         d="M 6.125,23.625 Q 6.25,23.25 6.5,23 L 6.75,22.75 7,23 Q 7.25,23.25 7.625,23.125 8,23 8,23.5 8,24 8.5,24 9,24 9,24.5 9,25 9.5,25 q 0.5,0 0.5,0.5 0,0.5 0.5,0.5 0.5,0 1,0 0.5,0 1,0 Q 13,26 13,25.5 13,25 13.5,25 14,25 14,24.5 14,24 14.5,24 15,24 15,23.5 15,23 15.5,23 q 0.5,0 1,0 0.5,0 1,0 0.5,0 0.5,0.5 0,0.5 0.5,0.5 0.5,0 0.375,0.375 Q 18.75,24.75 19,25 L 19.25,25.25 19,25.5 Q 18.75,25.75 18.5,26 18.25,26.25 18,26.5 17.75,26.75 17.5,27 17.25,27.25 17,27.5 16.75,27.75 16.5,28 16.25,28.25 16,28.5 15.75,28.75 15.5,29 15.25,29.25 15,29.5 14.75,29.75 14.5,30 14.25,30.25 14,30.5 13.75,30.75 13.375,30.875 13,31 12.5,31 12,31 11.5,31 11,31 10.5,31 10,31 9.625,30.875 9.25,30.75 9,30.5 8.75,30.25 8.5,30 8.25,29.75 8,29.5 7.75,29.25 7.5,29 7.25,28.75 7,28.5 6.75,28.25 6.5,28 6.25,27.75 6.125,27.375 6,27 6,26.5 6,26 6,25.5 6,25 6,24.5 6,24 6.125,23.625 M 19.0625,25.4375 19.25,25.25 19.3125,25.1875 19.375,25.125 19.25,25.25 Q 19.125,25.375 19,25.5 l -0.125,0.125 0.1875,-0.1875 M 6.8125,22.6875 6.75,22.75 6.5625,22.9375 6.375,23.125 6.5,23 q 0.125,-0.125 0.25,-0.25 l 0.125,-0.125 -0.0625,0.0625"
         id="path15025" />
      <path
         style="fill:#768a9a;fill-opacity:1"
         d="M 13,16.5 Q 13,16 13.375,15.875 L 13.75,15.75 13.46875,15.84375 13.1875,15.9375 13.375,15.875 q 0.1875,-0.0625 0.34375,-0.15625 L 13.875,15.625 l -0.07813,0.04687 -0.07813,0.04687 0.265625,0.265625 Q 14.25,16.25 14.125,16.625 14,17 14,17.5 q 0,0.5 0,1 0,0.5 0.5,0.5 0.5,0 0.5,0.5 0,0.5 0.5,0.5 0.5,0 0.5,0.5 0,0.5 0.5,0.5 0.5,0 1,0 Q 18,21 18,20.5 18,20 18.5,20 19,20 19,19.5 19,19 19.5,19 q 0.5,0 1,0 0.5,0 0.5,0.5 0,0.5 0.5,0.5 0.5,0 0.5,0.5 0,0.5 0.375,0.375 Q 22.75,20.75 23,21 L 23.25,21.25 23,21.5 Q 22.75,21.75 22.5,22 22.25,22.25 22,22.5 21.75,22.75 21.5,23 21.25,23.25 21,23.5 20.75,23.75 20.5,24 20.25,24.25 20,24.5 19.75,24.75 19.5,25 L 19.25,25.25 19,25 Q 18.75,24.75 18.875,24.375 19,24 18.5,24 18,24 18,23.5 18,23 17.5,23 17,23 16.5,23 16,23 15.5,23 15,23 15,23.5 15,24 14.5,24 14,24 14,24.5 14,25 13.5,25 13,25 13,25.5 13,26 12.5,26 12,26 11.5,26 11,26 10.5,26 10,26 10,25.5 10,25 9.5,25 9,25 9,24.5 9,24 8.5,24 8,24 8,23.5 8,23 7.625,23.125 7.25,23.25 7,23 L 6.75,22.75 7,22.5 Q 7.25,22.25 7.5,22 7.75,21.75 8,21.5 8.25,21.25 8.5,21 8.75,20.75 8.75,20.5 V 20.25 20.4375 20.625 20.5 q 0,-0.125 -0.09375,-0.21875 L 8.5625,20.1875 8.609375,20.234375 8.65625,20.28125 8.953125,20.015625 Q 9.25,19.75 9.625,19.875 10,20 10,19.5 10,19 10.5,19 11,19 11,18.5 11,18 11.5,18 12,18 12,17.5 12,17 12.5,17 13,17 13,16.5 M 6.9375,22.5625 6.75,22.75 6.6875,22.8125 6.625,22.875 6.75,22.75 Q 6.875,22.625 7,22.5 l 0.125,-0.125 -0.1875,0.1875 m 12.25,2.75 L 19.25,25.25 19.4375,25.0625 19.625,24.875 19.5,25 q -0.125,0.125 -0.25,0.25 l -0.125,0.125 0.0625,-0.0625 m 3.875,-3.875 L 23.25,21.25 23.3125,21.1875 23.375,21.125 23.25,21.25 Q 23.125,21.375 23,21.5 l -0.125,0.125 0.1875,-0.1875"
         id="path15023" />
      <path
         style="fill:#4c5878;fill-opacity:1"
         d="M 7,10.5 Q 7.25,10.25 7.5,10 L 7.75,9.75 8,10 Q 8.25,10.25 8.125,10.625 8,11 8.5,11 9,11 9,11.5 9,12 9.5,12 10,12 10,12.5 10,13 10.5,13 11,13 11,12.5 11,12 11.5,12 12,12 12,11.5 12,11 12.5,11 q 0.5,0 1,0 0.5,0 0.5,0.5 0,0.5 0.5,0.5 0.5,0 0.5,0.5 0,0.5 0.5,0.5 H 16 l -0.125,0.375 Q 15.75,13.75 15.5,14 15.25,14.25 15,14.5 14.75,14.75 14.5,15 14.25,15.25 14,15.5 13.75,15.75 13.375,15.875 13,16 13,16.5 13,17 12.5,17 12,17 12,17.5 12,18 11.5,18 11,18 11,18.5 11,19 10.5,19 10,19 10,19.5 10,20 9.625,19.875 9.25,19.75 8.953125,20.015625 L 8.65625,20.28125 8.703125,20.328125 8.75,20.375 8.65625,20.28125 Q 8.5625,20.1875 8.375,20.125 L 8.1875,20.0625 8.46875,20.15625 8.75,20.25 8.375,20.125 Q 8,20 7.625,19.875 7.25,19.75 7,19.5 6.75,19.25 6.5,19 6.25,18.75 6,18.5 5.75,18.25 5.5,18 5.25,17.75 5,17.5 4.75,17.25 4.5,17 4.25,16.75 4.125,16.375 4,16 4,15.5 4,15 4,14.5 4,14 4.125,13.625 4.25,13.25 4.5,13 4.75,12.75 5,12.5 5.25,12.25 5.5,12 5.75,11.75 6,11.5 6.25,11.25 6.5,11 6.75,10.75 7,10.5 M 7.8125,9.6875 7.75,9.75 7.5625,9.9375 7.375,10.125 7.5,10 Q 7.625,9.875 7.75,9.75 L 7.875,9.625 7.8125,9.6875"
         id="path15021" />
      <path
         style="fill:#768a9a;fill-opacity:1"
         d="M 10,7.5 Q 10.25,7.25 10.5,7 L 10.75,6.75 11,7 Q 11.25,7.25 11.125,7.625 11,8 11.5,8 12,8 12,8.5 12,9 12.5,9 13,9 13,9.5 13,10 13.5,10 14,10 14.5,10 15,10 15,9.5 15,9 15.5,9 16,9 16,8.5 16,8 16.5,8 17,8 17,8.5 17,9 17.5,9 18,9 18,9.5 18,10 18.5,10 19,10 19,10.5 19,11 18.5,11 18,11 18,11.5 18,12 17.5,12 17,12 17,12.5 17,13 16.5,13 H 16 15.5 Q 15,13 15,12.5 15,12 14.5,12 14,12 14,11.5 14,11 13.5,11 13,11 12.5,11 12,11 12,11.5 12,12 11.5,12 11,12 11,12.5 11,13 10.5,13 10,13 10,12.5 10,12 9.5,12 9,12 9,11.5 9,11 8.5,11 8,11 8.125,10.625 8.25,10.25 8,10 L 7.75,9.75 8,9.5 Q 8.25,9.25 8.5,9 8.75,8.75 9,8.5 9.25,8.25 9.5,8 9.75,7.75 10,7.5 M 7.9375,9.5625 7.75,9.75 7.6875,9.8125 7.625,9.875 7.75,9.75 Q 7.875,9.625 8,9.5 L 8.125,9.375 7.9375,9.5625 M 10.8125,6.6875 10.75,6.75 10.5625,6.9375 10.375,7.125 10.5,7 q 0.125,-0.125 0.25,-0.25 l 0.125,-0.125 -0.0625,0.0625"
         id="path15019" />
      <path
         style="fill:#a0b0c8;fill-opacity:1"
         d="M 15,2.5 Q 15.25,2.25 15.625,2.125 16,2 16.5,2 17,2 17.5,2 18,2 18.5,2 19,2 19.375,2.125 19.75,2.25 20,2.5 20.25,2.75 20.5,3 20.75,3.25 21,3.5 21.25,3.75 21.5,4 21.75,4.25 22,4.5 22.25,4.75 22.5,5 22.75,5.25 22.875,5.625 23,6 23,6.5 23,7 23,7.5 23,8 23.125,8.375 23.25,8.75 23.5,9 q 0.25,0.25 0.5,0.5 0.25,0.25 0.5,0.5 0.25,0.25 0.5,0.5 0.25,0.25 0.5,0.5 0.25,0.25 0.5,0.5 0.25,0.25 0.5,0.5 0.25,0.25 0.5,0.5 0.25,0.25 0.5,0.5 0.25,0.25 0.375,0.625 Q 28,14 28,14.5 q 0,0.5 0,1 0,0.5 -0.125,0.875 Q 27.75,16.75 27.5,17 27.25,17.25 27,17.5 26.75,17.75 26.5,18 26.25,18.25 26,18.5 25.75,18.75 25.5,19 25.25,19.25 25,19.5 24.75,19.75 24.5,20 24.25,20.25 24,20.5 23.75,20.75 23.5,21 L 23.25,21.25 23,21 Q 22.75,20.75 22.375,20.875 22,21 22,20.5 22,20 21.5,20 21,20 21,19.5 21,19 20.5,19 20,19 19.5,19 19,19 19,19.5 19,20 18.5,20 18,20 18,20.5 18,21 17.5,21 17,21 16.5,21 16,21 16,20.5 16,20 15.5,20 15,20 15,19.5 15,19 14.5,19 14,19 14,18.5 14,18 14,17.5 14,17 14.125,16.625 14.25,16.25 13.984375,15.984375 l -0.265625,-0.265625 -0.07813,0.04687 -0.07813,0.04687 0.15625,-0.09375 Q 13.875,15.625 14,15.5 L 14.125,15.375 13.9375,15.5625 13.75,15.75 14,15.5 q 0.25,-0.25 0.5,-0.5 0.25,-0.25 0.5,-0.5 0.25,-0.25 0.5,-0.5 0.25,-0.25 0.375,-0.625 L 16,13 h 0.5 Q 17,13 17,12.5 17,12 17.5,12 18,12 18,11.5 18,11 18.5,11 19,11 19,10.5 19,10 18.5,10 18,10 18,9.5 18,9 17.5,9 17,9 17,8.5 17,8 16.5,8 16,8 16,8.5 16,9 15.5,9 15,9 15,9.5 15,10 14.5,10 14,10 13.5,10 13,10 13,9.5 13,9 12.5,9 12,9 12,8.5 12,8 11.5,8 11,8 11.125,7.625 11.25,7.25 11,7 L 10.75,6.75 11,6.5 Q 11.25,6.25 11.5,6 11.75,5.75 12,5.5 12.25,5.25 12.5,5 12.75,4.75 13,4.5 13.25,4.25 13.5,4 13.75,3.75 14,3.5 14.25,3.25 14.5,3 14.75,2.75 15,2.5 M 10.9375,6.5625 10.75,6.75 10.6875,6.8125 10.625,6.875 10.75,6.75 Q 10.875,6.625 11,6.5 l 0.125,-0.125 -0.1875,0.1875 m 12.25,14.75 L 23.25,21.25 23.4375,21.0625 23.625,20.875 23.5,21 q -0.125,0.125 -0.25,0.25 l -0.125,0.125 0.0625,-0.0625"
         id="path15017" />
      <path
         style="fill:#000000;fill-opacity:0"
         d="M 0,0.5 V 0 H 0.5 1 1.5 2 2.5 3 3.5 4 4.5 5 5.5 6 6.5 7 7.5 8 8.5 9 9.5 10 10.5 11 11.5 12 12.5 13 13.5 14 14.5 15 15.5 16 16.5 17 17.5 18 18.5 19 19.5 20 20.5 21 21.5 22 22.5 23 23.5 24 24.5 25 25.5 26 26.5 27 27.5 28 28.5 29 29.5 30 30.5 31 31.5 32 V 0.5 1 1.5 2 2.5 3 3.5 4 4.5 5 5.5 6 6.5 7 7.5 8 8.5 9 9.5 10 10.5 11 11.5 12 12.5 13 13.5 14 14.5 15 15.5 16 16.5 17 17.5 18 18.5 19 19.5 20 20.5 21 21.5 22 22.5 23 23.5 24 24.5 25 25.5 26 26.5 27 27.5 28 28.5 29 29.5 30 30.5 31 31.5 32 H 31.5 31 30.5 30 29.5 29 28.5 28 27.5 27 26.5 26 25.5 25 24.5 24 23.5 23 22.5 22 21.5 21 20.5 20 19.5 19 18.5 18 17.5 17 16.5 16 15.5 15 14.5 14 13.5 13 12.5 12 11.5 11 10.5 10 9.5 9 8.5 8 7.5 7 6.5 6 5.5 5 4.5 4 3.5 3 2.5 2 1.5 1 0.5 0 V 31.5 31 30.5 30 29.5 29 28.5 28 27.5 27 26.5 26 25.5 25 24.5 24 23.5 23 22.5 22 21.5 21 20.5 20 19.5 19 18.5 18 17.5 17 16.5 16 15.5 15 14.5 14 13.5 13 12.5 12 11.5 11 10.5 10 9.5 9 8.5 8 7.5 7 6.5 6 5.5 5 4.5 4 3.5 3 2.5 2 1.5 1 0.5 M 12.5,31 Q 13,31 13.375,30.875 13.75,30.75 14,30.5 14.25,30.25 14.5,30 14.75,29.75 15,29.5 15.25,29.25 15.5,29 15.75,28.75 16,28.5 16.25,28.25 16.5,28 16.75,27.75 17,27.5 17.25,27.25 17.5,27 17.75,26.75 18,26.5 18.25,26.25 18.5,26 18.75,25.75 19,25.5 19.25,25.25 19.5,25 19.75,24.75 20,24.5 20.25,24.25 20.5,24 20.75,23.75 21,23.5 21.25,23.25 21.5,23 21.75,22.75 22,22.5 22.25,22.25 22.5,22 22.75,21.75 23,21.5 23.25,21.25 23.5,21 23.75,20.75 24,20.5 24.25,20.25 24.5,20 24.75,19.75 25,19.5 25.25,19.25 25.5,19 25.75,18.75 26,18.5 26.25,18.25 26.5,18 26.75,17.75 27,17.5 27.25,17.25 27.5,17 27.75,16.75 27.875,16.375 28,16 28,15.5 28,15 28,14.5 28,14 27.875,13.625 27.75,13.25 27.5,13 27.25,12.75 27,12.5 26.75,12.25 26.5,12 26.25,11.75 26,11.5 25.75,11.25 25.5,11 25.25,10.75 25,10.5 24.75,10.25 24.5,10 24.25,9.75 24,9.5 23.75,9.25 23.5,9 23.25,8.75 23.125,8.375 23,8 23,7.5 23,7 23,6.5 23,6 22.875,5.625 22.75,5.25 22.5,5 22.25,4.75 22,4.5 21.75,4.25 21.5,4 21.25,3.75 21,3.5 20.75,3.25 20.5,3 20.25,2.75 20,2.5 19.75,2.25 19.375,2.125 19,2 18.5,2 18,2 17.5,2 17,2 16.5,2 16,2 15.625,2.125 15.25,2.25 15,2.5 14.75,2.75 14.5,3 14.25,3.25 14,3.5 13.75,3.75 13.5,4 13.25,4.25 13,4.5 12.75,4.75 12.5,5 12.25,5.25 12,5.5 11.75,5.75 11.5,6 11.25,6.25 11,6.5 10.75,6.75 10.5,7 10.25,7.25 10,7.5 9.75,7.75 9.5,8 9.25,8.25 9,8.5 8.75,8.75 8.5,9 8.25,9.25 8,9.5 7.75,9.75 7.5,10 7.25,10.25 7,10.5 6.75,10.75 6.5,11 6.25,11.25 6,11.5 5.75,11.75 5.5,12 5.25,12.25 5,12.5 4.75,12.75 4.5,13 4.25,13.25 4.125,13.625 4,14 4,14.5 4,15 4,15.5 4,16 4.125,16.375 4.25,16.75 4.5,17 4.75,17.25 5,17.5 5.25,17.75 5.5,18 5.75,18.25 6,18.5 6.25,18.75 6.5,19 6.75,19.25 7,19.5 7.25,19.75 7.625,19.875 8,20 8.375,20.125 8.75,20.25 8.75,20.5 8.75,20.75 8.5,21 8.25,21.25 8,21.5 7.75,21.75 7.5,22 7.25,22.25 7,22.5 6.75,22.75 6.5,23 6.25,23.25 6.125,23.625 6,24 6,24.5 6,25 6,25.5 6,26 6,26.5 6,27 6.125,27.375 6.25,27.75 6.5,28 6.75,28.25 7,28.5 7.25,28.75 7.5,29 7.75,29.25 8,29.5 8.25,29.75 8.5,30 8.75,30.25 9,30.5 9.25,30.75 9.625,30.875 10,31 10.5,31 q 0.5,0 1,0 0.5,0 1,0"
         id="path15015" />
    </g>
  </g>
</svg>

<svg width="32" height="32" xmlns="http://www.w3.org/2000/svg"><path style="fill:#4c5878;fill-opacity:1" d="m6.1 23.6.4-.6.3-.3.2.3q.3.3.6.1.4-.1.4.4t.5.5.5.5.5.5.5.5.5.5h2q.5 0 .5-.5t.5-.5.5-.5.5-.5.5-.5.5-.5h2q.5 0 .5.5t.5.5q.5 0 .4.4-.1.4.1.6l.3.3-.3.2-.5.5-.5.5-.5.5-.5.5-.5.5-.5.5-.5.5-.5.5-.5.5-.5.5-.6.4-.9.1h-2l-.9-.1-.6-.4-.5-.5-.5-.5-.5-.5-.5-.5-.5-.5-.4-.6-.1-.9v-2l.1-.9m13 1.8.1-.1.1-.1-.3.3-.1.1.2-.2M6.8 22.7l-.2.2-.2.2.1-.1.3-.3"/><path style="fill:#768a9a;fill-opacity:1" d="M13 16.5q0-.5.4-.6l.3-.2-.2.1-.3.1h.2q.2 0 .3-.2h.2-.1l.2.3q.3.3.1.6l-.1.9v1q0 .5.5.5t.5.5.5.5.5.5.5.5h1q.5 0 .5-.5t.5-.5.5-.5.5-.5h1q.5 0 .5.5t.5.5.5.5q0 .5.4.4.4-.1.6.1l.3.3-.3.2-.5.5-.5.5-.5.5-.5.5-.5.5-.5.5-.5.5-.3.3-.2-.3q-.3-.3-.1-.6.1-.4-.4-.4t-.5-.5-.5-.5h-2q-.5 0-.5.5t-.5.5-.5.5-.5.5-.5.5-.5.5h-2q-.5 0-.5-.5t-.5-.5-.5-.5-.5-.5-.5-.5q0-.5-.4-.4-.3.1-.6-.1l-.3-.3.3-.2.5-.5.5-.5.5-.5q.3-.3.3-.5v-.3.4-.1l-.1-.2-.1-.1.4-.2q.3-.3.6-.1.4.1.4-.4t.5-.5.5-.5.5-.5.5-.5.5-.5.5-.5m-6 6-.3.3.3-.3.1-.1-.2.2m12.3 2.7.2-.2.2-.2-.1.1-.3.3m3.9-3.9.1-.1.1-.1-.3.3-.1.1.2-.2"/><path style="fill:#4c5878;fill-opacity:1" d="m7 10.5.5-.5.3-.3.2.3q.3.3.1.6-.1.4.4.4t.5.5.5.5.5.5.5.5q.5 0 .5-.5t.5-.5.5-.5.5-.5h1q.5 0 .5.5t.5.5.5.5.5.5h.5l-.1.4-.4.6-.5.5-.5.5-.5.5-.6.4q-.4.1-.4.6t-.5.5-.5.5-.5.5-.5.5-.5.5-.5.5q0 .5-.4.4-.3-.1-.6.1l-.3.3-.3-.2h-.2.3l.3.1h-.4l-.8-.3-.6-.4-.5-.5-.5-.5-.5-.5-.5-.5-.5-.5-.4-.6-.1-.9v-1l.1-.9.4-.6.5-.5.5-.5.5-.5.5-.5.5-.5m.8-.8-.2.2-.2.2.1-.1.3-.3"/><path style="fill:#768a9a;fill-opacity:1" d="m10 7.5.5-.5.3-.3.2.3q.3.3.1.6-.1.4.4.4t.5.5.5.5.5.5.5.5h1q.5 0 .5-.5t.5-.5.5-.5.5-.5q.5 0 .5.5t.5.5.5.5.5.5.5.5q0 .5-.5.5t-.5.5-.5.5-.5.5-.5.5h-1q-.5 0-.5-.5t-.5-.5-.5-.5-.5-.5h-1q-.5 0-.5.5t-.5.5-.5.5-.5.5q-.5 0-.5-.5t-.5-.5-.5-.5-.5-.5q-.5 0-.4-.4.2-.3-.1-.6l-.3-.3.3-.2.5-.5.5-.5.5-.5.5-.5m-2 2-.3.3.3-.3.1-.1-.2.2m3-3-.2.2-.1.1-.2.2.1-.1.3-.3"/><path style="fill:#a0b0c8;fill-opacity:1" d="m15 2.5.6-.4.9-.1h2l.9.1q.4.1.6.4l.5.5.5.5.5.5.5.5.5.5.4.6.1.9v1l.1.9.4.6.5.5.5.5.5.5.5.5.5.5.5.5.5.5.5.5.4.6.1.9v1l-.1.9q-.1.4-.4.6l-.5.5-.5.5-.5.5-.5.5-.5.5-.5.5-.5.5-.5.5-.3.3-.2-.3q-.3-.3-.6-.1-.4.1-.4-.4t-.5-.5-.5-.5-.5-.5h-1q-.5 0-.5.5t-.5.5-.5.5-.5.5h-1q-.5 0-.5-.5t-.5-.5-.5-.5-.5-.5-.5-.5v-1l.1-.9q.2-.4-.1-.6l-.3-.3-.1.1h.1l.3-.3.1-.1-.2.2-.2.2.3-.3.5-.5.5-.5.5-.5.4-.6.1-.4h.5q.5 0 .5-.5t.5-.5.5-.5.5-.5.5-.5q0-.5-.5-.5t-.5-.5-.5-.5-.5-.5-.5-.5q-.5 0-.5.5t-.5.5-.5.5-.5.5h-1q-.5 0-.5-.5t-.5-.5-.5-.5-.5-.5q-.5 0-.4-.4.2-.3-.1-.6l-.3-.3.3-.2.5-.5.5-.5.5-.5.5-.5.5-.5.5-.5.5-.5.5-.5m-4 4-.3.3.3-.3.1-.1-.2.2m12.3 14.7.2-.2.2-.2-.1.1-.3.3"/><path style="fill:#000;fill-opacity:0" d="M0 .5V0h32v32H0V.5M12.5 31l.9-.1.6-.4.5-.5.5-.5.5-.5.5-.5.5-.5.5-.5.5-.5.5-.5.5-.5.5-.5.5-.5.5-.5.5-.5.5-.5.5-.5.5-.5.5-.5.5-.5.5-.5.5-.5.5-.5.5-.5.5-.5.5-.5.5-.5.5-.5.5-.5.4-.6.1-.9v-1l-.1-.9-.4-.6-.5-.5-.5-.5-.5-.5-.5-.5-.5-.5-.5-.5-.5-.5-.5-.5-.4-.6-.1-.9v-1l-.1-.9-.4-.6-.5-.5-.5-.5-.5-.5-.5-.5-.5-.5-.6-.4-.9-.1h-2l-.9.1-.6.4-.5.5-.5.5-.5.5-.5.5-.5.5-.5.5-.5.5-.5.5-.5.5-.5.5-.5.5-.5.5-.5.5-.5.5-.5.5-.5.5-.5.5-.5.5-.5.5-.5.5-.5.5-.4.6-.1.9v1l.1.9.4.6.5.5.5.5.5.5.5.5.5.5.6.4.8.2q.3.1.3.4 0 .3-.2.5l-.5.5-.5.5-.5.5-.5.5-.4.6-.1.9v2l.1.9.4.6.5.5.5.5.5.5.5.5.5.5.6.4.9.1h2" fill="none"/></svg>
